icon/pk/upload-logs.svg

<svg viewBox="0 0 48 48" fill="none" xmlns="http://www.w3.org/2000/svg" height="1em" width="1em">
  <path d="M24 43.9998H10C8.89543 43.9998 8 43.1043 8 41.9998V5.99976C8 4.89519 8.89543 3.99976 10 3.99976H38C39.1046 3.99976 40 4.89519 40 5.99976V23.9998" stroke="black" stroke-width="4" stroke-linecap="round" stroke-linejoin="round"/>
  <path d="M35.5 43.9998V30.9998" stroke="black" stroke-width="4" stroke-linecap="round" stroke-linejoin="round"/>
  <path d="M31 34.4998L32.5 32.9998L35.5 29.9998L38.5 32.9998L40 34.4998" stroke="black" stroke-width="4" stroke-linecap="round" stroke-linejoin="round"/>
  <path d="M16 15.9998H32" stroke="black" stroke-width="4" stroke-linecap="round"/>
  <path d="M16 23.9998H24" stroke="black" stroke-width="4" stroke-linecap="round"/>
</svg>

<svg width="48" height="48" fill="none" xmlns="http://www.w3.org/2000/svg"><path d="M24 44H10a2 2 0 0 1-2-2V6a2 2 0 0 1 2-2h28a2 2 0 0 1 2 2v18M35.5 44V31" stroke="#000" stroke-width="4" stroke-linecap="round" stroke-linejoin="round"/><path d="m31 34.5 1.5-1.5 3-3 3 3 1.5 1.5" stroke="#000" stroke-width="4" stroke-linecap="round" stroke-linejoin="round"/><path d="M16 16h16M16 24h8" stroke="#000" stroke-width="4" stroke-linecap="round"/></svg>
